X:1
T:Title
%%score { ( 1 3 ) | ( 2 4 ) }
L:1/8
Q:1/4=100
M:4/4
K:G
V:1 treble nm="Grand Piano"
V:3 treble 
V:2 bass 
V:4 bass 
V:1
 [DB]>[DB] [DB][DB] [CA][EG][DF][CE] | [B,D]2 [B,G]2 [DB]2 z2 | %2
w: E.~S.~Lorenz * * * * * * *||
 [DA]>[DA] [A,FA][A,FA] [DFB] .[DFA]3 | [B,DG]>[B,DG] [B,G][CE] [CE] .[B,D]3 | %4
w: ||
 [DB]>[DB] [DB][DB] [CA][EG][DF][CE] | [B,D]2 [B,G]2 [DB]2 z2 | %6
w: ||
 [DA]>[DA] [A,FA][A,FA] [DFB][DFA][CFA][A,DF] |[M:3/4] [G,B,DG]6 |[M:1/4] [DGB][DAc] | %9
w: |||
[M:4/4] [DBd]2 d>d edGA | B6 z2 | [Bd]2 d>d eddB | A6 z2 | [DB]>[DB] [DB][DB] [CA][EG][DF][CE] | %14
w: |||||
 [B,D]2 [B,G]2 [DB]2 z2 | [DA]>[DA] [A,FA][A,FA] [DFB][DFA][CFA][A,DF] | %16
w: ||
[M:7/4] [G,B,DG]6 z2 z2 z4 |] %17
w: |
V:2
 [G,,G,]>[G,,G,] [G,,G,][G,,G,] [C,E,][C,G,][C,G,][C,G,] | [G,,G,]2 [G,,G,]2 [G,,G,]2 z2 | %2
 [D,F,]>[D,F,] D,D, D, .D,3 | G,,>G,, [G,,G,][G,,G,] [G,,G,] .[G,,G,]3 | %4
 [G,,G,]>[G,,G,] [G,,G,][G,,G,] [C,E,][C,G,][C,G,][C,G,] | [G,,G,]2 [G,,G,]2 [G,,G,]2 z2 | %6
 [D,F,]>[D,F,] D,D, D,D,D,D, |[M:3/4] G,,6 |[M:1/4] G,G, | %9
[M:4/4] G,2[K:treble] [G,B,G]>[G,B,G] [G,CG][G,B,G][G,B,][G,CF] | G6 z2 | %11
 [G,D]2 [G,B,G]>[G,B,G] [G,CG][G,B,G][G,B,G][G,DG] | D,2 A,,>A,, D,2 z2 | %13
 [G,,G,]>[G,,G,] [G,,G,][G,,G,] [C,E,][C,G,][C,G,][C,G,] | [G,,G,]2 [G,,G,]2 [G,,G,]2 z2 | %15
 [D,F,]>[D,F,] D,D, D,D,D,D, |[M:7/4] G,,6 z2 z2 z4 |] %17
V:3
 x8 | x8 | x8 | x8 | x8 | x8 | x8 |[M:3/4] x6 |[M:1/4] x2 |[M:4/4] x8 | z2 D>D D2 B[Ac] | x8 | %12
 [DF]2 [^CE]>[EG] [DF]2 z2 | x8 | x8 | x8 |[M:7/4] x14 |] %17
V:4
 x8 | x8 | x8 | x8 | x8 | x8 | x8 |[M:3/4] x6 |[M:1/4] x2 |[M:4/4] x2[K:treble] x6 | %10
 [G,D]2 G,>G, G,2 [G,DG][G,D] | x8 | x8 | x8 | x8 | x8 |[M:7/4] x14 |] %17

